X: 23
M: 4/4
L: 1/8
K: A
|: "A"c2Bc "E7"eAAB | "A"cBcd "F#m"ecBA | "Bm"d2cd "F#/Bm"fBBc | "Bm"dcde "E7"fdBG |
   "A"c2Bc "E7"eAAB | "A"cBcd "F#m"ecBA | "Bm"dcdf "E7"Bcde |1 "A"cA"D"AA "A"A2AB :|2 "A"cA"D"AA "A"A2"E7"cd ||
|: "A"e2^de "E7"fece | "A"a2ga "F#m"fece | "Bm"f2ef "F#m"defa | "D#/B7"bagf "E7"edcd |
   "A"e2^de "E7"fece | "A"a2ga "F#m"fece | "Bm"d2cd "E7"Bcde |1 "A"cA"D"AA "A"c2"E7"cd :|2 "A"cA"D"AA "A"c2c2 |]
\251 RSCDS 1985 -  Published with kind permission of the Royal Scottish Country Dance Society

of many great Scottish Country Dances. I have known John for more years than I care to remember and was
delighted when I was asked by Roy Goldring to compose a tune for a dance he was devising as a tribute to
John Drewry. The dance, 'John of Bon Accord', was published by the RSCDS in 1985 in their Book 33.


